X:1
T:Title
%%score { ( 1 3 5 ) | ( 2 4 6 ) }
L:1/8
M:4/4
K:Eb
V:1 bass nm="Grand Piano"
V:3 bass 
V:5 bass 
V:2 bass 
V:4 bass 
V:6 bass 
V:1
 z4 z2[Q:1/4=110] B,2 | [G,B,E]3[K:treble] [DF] [B,EG]2 [B,DA]2 | [B,EB]3 [Ec] [DAd]2 [E_G=A=Be]2 | %3
 [GBeg]2 z2 [FABdf]2[K:bass] z2 |[M:3/4][K:treble] [EGBe]2 [G,B,E]2 [G,B,E]2 |[M:1/4] z2 | %6
[M:4/4] [G,B,E]2 [DF]2 [B,EG]2 [B,DA]2 | [B,EB]3 [B,DA] [B,EG]2 [CEc]2 | %8
 [B,EB]3 [B,DA] [B,EG]2 [D_G]2 |[M:3/4] [B,EG]6 |[M:1/4] [DF]2 | %11
[M:4/4] [B,EG]2 [B,DA]2 [B,EB]2 [EGce]2 | [GBdg]3 f [Gce]2 [EGc]2 | [DFB]2 [E=A]2 [CEG]2 [EFA]2 | %14
[M:3/4] B6 |[M:1/4] [DFB]2 |[M:4/4] [G,B,E]2 [DF]2 [B,EG]2 [B,DA]2 | %17
 [B,EB]3 [B,DA] [B,EG]2 [B,FB]2 | [EGe]3 [FAd] [EGc]2 [DFG=B]2 |[M:3/4] c6 |[M:1/4] c2 | %21
[M:4/4] [Fcf]4 z4 | [EGBe]4 z4 | [CAc]2 [B,EGB]2 [B,DA]2 [A,B,DF]2 |[M:3/4][K:bass] [G,B,E]6 | %25
[M:1/4] [A,B,]2 |[M:4/4] [E,G,E]2- [E,G,B,E]2[K:treble] [DF]2- [B,DF]2 | z2 B4 z2 | %28
 A4[K:bass][K:treble] B4 |[M:3/4] z2 e4[K:bass] |[M:1/4][K:treble] c2 |[M:4/4] B4[K:bass] G4 | %32
 G>F [G,CE]4 [A,EF]2 | [EG]4 z4 |[M:3/4] [DF]6 |[M:1/4] [A,B,]2 |[M:4/4] [G,E]4 [DF]4 | z2 B4 z2 | %38
 A4[K:bass][K:treble] B4 |[M:3/4] z2 e4[K:bass] |[M:1/4][K:treble] c2 |[M:4/4] B4[K:bass] G4 | %42
 G>F [G,CE]4 [B,EF]2 | [EG]4 [A,DF]4 |[M:3/4] [G,B,E]6 |] %45
V:2
 z4 z2 B,,2 | E,,2 z B, [E,,E,]2 [F,,F,]2 | [G,,G,]3 [A,,A,] [B,,B,]2 [=B,,=B,]2 | %3
 [B,,B,]E,D,C, [B,,B,]A,,G,,F,, |[M:3/4] [E,,E,]2 [E,,E,]2 [E,,E,]2 |[M:1/4] [B,,B,]2 | %6
[M:4/4] [E,,E,]2 [B,,B,]2 [E,,E,]2 [F,,F,]2 | [G,,G,]3 [F,,F,] [E,,E,]2 [A,,A,]2 | %8
 [G,,G,]3 [F,,F,] [E,,E,]2 [B,,B,]2 |[M:3/4] z2 B,,2 E,2 |[M:1/4] [B,,B,]2 | %11
[M:4/4] [E,,E,]2 [F,,F,]2 [G,,G,]2 [C,,C,]2 | [G,,G,]2 z[K:treble] [GB][K:bass] [C,C]2 [E,,E,]2 | %13
 [F,,F,]2 [C,F,C]2 [F,,F,]2 [C,F,C]2 |[M:3/4] B,2 [D,A,C]2 [D,G,B,]2 |[M:1/4] [B,,B,]2 | %16
[M:4/4] [E,,E,]2 [B,,B,]2 [E,,E,]2 [F,,F,]2 | [G,,G,]3 [F,,F,] [E,,E,]2 [D,,D,]2 | %18
 [C,,C,]3 [D,,D,] [E,,E,]2 [G,,G,]2 |[M:3/4] C,2 [C,G,]2 C,2 |[M:1/4] C,2 | %21
[M:4/4] A,,2 z E A,,2 [F,A,C]2 | z2 E,2 z4 | B,,2 E,2 B,,2 B,,2 |[M:3/4] E,,2 B,,2 E,,2 | %25
[M:1/4] B,,2 |[M:4/4] E,,2 B,,2 [B,,,B,,]2 B,,2 | z2 B,2 z4 | [F,B,D]4[K:treble] [G,B,E]4 | %29
[M:3/4] [A,E]>[A,B,E] [A,CA]4 |[M:1/4] [A,EA]2 |[M:4/4][K:bass] [G,E]4 [E,B,E]4 | %32
 [D,G,=B,]>[D,G,B,] C,2 C,2 C,2 | B,,2 B,,2 B,,2 B,,2 |[M:3/4] z2 B,4 |[M:1/4] B,,2 | %36
[M:4/4] E,4 z4 | z2 B,2 z4 | [F,B,D]4 [G,E]4 |[M:3/4][K:treble] [A,E]>[A,B,E] [A,CA]4 | %40
[M:1/4] [A,EA]2 |[M:4/4] [G,E]4[K:bass] [E,B,E]4 | [D,G,=B,]>[D,G,B,] C,2 C,2 =B,,2 | %43
 B,,2 B,,2 B,,2 B,,2 |[M:3/4] E,6 |] %45
V:3
 x8 | E,2 z2[K:treble] z4 | x8 | z EDC z[K:bass] A,G,F, |[M:3/4][K:treble] x6 |[M:1/4] x2 | %6
[M:4/4] x8 | x8 | x8 |[M:3/4] x6 |[M:1/4] x2 |[M:4/4] x8 | x8 | x8 |[M:3/4] D2 [DA]2 [DG]2 | %15
[M:1/4] x2 |[M:4/4] x8 | x8 | x8 |[M:3/4] C2- [C-EG][CDF] [G,CE]2 |[M:1/4] x2 | %21
[M:4/4] z2 z [Ace] [DAd]2 [Ac]2 | z2 z [Dd] [CEGc]2 [B,EG]2 | x8 |[M:3/4][K:bass] E,2 z2 z2 | %25
[M:1/4] x2 |[M:4/4] B,2 z2[K:treble] B,2 z2 | G>A z2 B,2 [EG]2 | z2[K:bass] B,,2[K:treble] z2 E,2 | %29
[M:3/4] c>d z2[K:bass] A,,2 |[M:1/4][K:treble] x2 |[M:4/4] z2[K:bass] E,2 z2 B,,2 | x8 | %33
 B,2 B,2 [B,EG]4 |[M:3/4] B,2 z2 z2 |[M:1/4] x2 |[M:4/4] B,2 B,2 B,2 B,2 | G>A z2 B,2 [EG]2 | %38
 z2[K:bass] B,,2[K:treble] z2 E,2 |[M:3/4] c>d z2[K:bass] A,,2 |[M:1/4][K:treble] x2 | %41
[M:4/4] z2[K:bass] E,2 z2 B,,2 | x8 | B,2 B,2 B,2 z2 |[M:3/4] x6 |] %45
V:4
 x8 | z2 B,,2 z4 | x8 | x8 |[M:3/4] x6 |[M:1/4] x2 |[M:4/4] x8 | x8 | x8 |[M:3/4] E,,6 | %10
[M:1/4] x2 |[M:4/4] x8 | z2 [=B,,=B,]2[K:treble][K:bass] z4 | x8 |[M:3/4] B,,6 |[M:1/4] x2 | %16
[M:4/4] x8 | x8 | x8 |[M:3/4] C,,6 |[M:1/4] x2 |[M:4/4] z2 F,2 z4 | z2 z B,, B,,2 B,,2 | x8 | %24
[M:3/4] x6 |[M:1/4] x2 |[M:4/4] x8 | [E,B,E]>[F,B,D] [G,E]2- [E,G,E]2 [B,,E,B,]2 | %28
 x4[K:treble] x4 |[M:3/4] x6 |[M:1/4] x2 |[M:4/4][K:bass] x8 | x8 | x8 |[M:3/4] z2 z2 B,,2 | %35
[M:1/4] x2 |[M:4/4] z2 B,,2 B,,2 B,,2 | [E,B,E]>[F,B,D] [G,E]2- [E,G,E]2 [B,,E,B,]2 | z4 E,2 z2 | %39
[M:3/4][K:treble] x6 |[M:1/4] x2 |[M:4/4] x4[K:bass] x4 | x8 | x8 |[M:3/4] z2 B,,2 E,,2 |] %45
V:5
 x8 | x3[K:treble] x5 | x8 | x5[K:bass] x3 |[M:3/4][K:treble] x6 |[M:1/4] x2 |[M:4/4] x8 | x8 | %8
 x8 |[M:3/4] x6 |[M:1/4] x2 |[M:4/4] x8 | x8 | x8 |[M:3/4] x6 |[M:1/4] x2 |[M:4/4] x8 | x8 | x8 | %19
[M:3/4] x6 |[M:1/4] x2 |[M:4/4] z2 C2 z4 | z2 B,2 z4 | x8 |[M:3/4][K:bass] x6 |[M:1/4] x2 | %26
[M:4/4] x4[K:treble] x4 | x8 | x2[K:bass] x2[K:treble] x4 |[M:3/4] x4[K:bass] x2 | %30
[M:1/4][K:treble] x2 |[M:4/4] x2[K:bass] x6 | x8 | x8 |[M:3/4] x6 |[M:1/4] x2 |[M:4/4] x8 | x8 | %38
 x2[K:bass] x2[K:treble] x4 |[M:3/4] x4[K:bass] x2 |[M:1/4][K:treble] x2 |[M:4/4] x2[K:bass] x6 | %42
 x8 | x8 |[M:3/4] x6 |] %45
V:6
 x8 | x8 | x8 | x8 |[M:3/4] x6 |[M:1/4] x2 |[M:4/4] x8 | x8 | x8 |[M:3/4] x6 |[M:1/4] x2 | %11
[M:4/4] x8 | x3[K:treble] x[K:bass] x4 | x8 |[M:3/4] x6 |[M:1/4] x2 |[M:4/4] x8 | x8 | x8 | %19
[M:3/4] x6 |[M:1/4] x2 |[M:4/4] x8 | B,,4 z4 | x8 |[M:3/4] x6 |[M:1/4] x2 |[M:4/4] x8 | x8 | %28
 x4[K:treble] x4 |[M:3/4] x6 |[M:1/4] x2 |[M:4/4][K:bass] x8 | x8 | x8 |[M:3/4] B,,4 z2 | %35
[M:1/4] x2 |[M:4/4] x8 | x8 | x8 |[M:3/4][K:treble] x6 |[M:1/4] x2 |[M:4/4] x4[K:bass] x4 | x8 | %43
 x8 |[M:3/4] x6 |] %45

